!!!COM: Joplin, Scott
!!!CDT: 1868/11/24/-1917/04/01/
!!!OTL: Wall Street Rag
!!!ODT: 1909///
!!!OMD: Very Slow March Time
!!!PPR: Seminary Music Co.
!!!PPP: 112 W. 38th St., New York, New York
!!!PDT: 1909///
**kern	**kern	**dynam
*staff2	*staff1	*staff1/2
*Ipiano	*Ipiano	*Ipiano
*>[I,A,A1,A,A2,B,B1,B,B2,C,C1,C,C2,D,D1,D,D2]	*>[I,A,A1,A,A2,B,B1,B,B2,C,C1,C,C2,D,D1,D,D2]	*>[I,A,A1,A,A2,B,B1,B,B2,C,C1,C,C2,D,D1,D,D2]
*>norep[I,A,A2,B,B2,C,C2,D,D2]	*>norep[I,A,A2,B,B2,C,C2,D,D2]	*>norep[I,A,A2,B,B2,C,C2,D,D2]
*>I	*>I	*>I
*clefF4	*clefG2	*clefG2
*k[]	*k[]	*k[]
*M2/4	*M2/4	*M2/4
*MM92	*MM92	*MM92
=1-	=1-	=1-
8.cL	8.ccL	mf
16AJk	16aJk	.
8DL	8dL	.
16CL	16cL	.
16DJJ	16dJJ	.
=2	=2	=2
8E	8e	.
4F	4f	.
8G	8g	.
=3	=3	=3
8EL	8eL	.
16DL	16dL	.
16EJJ	16eJJ	.
16FLK	16fLK	.
8A	8a	.
16A-Jk	16a-Jk	.
=4	=4	=4
4G	4g	.
8G^ GG	8gg^ b g	.
8r	8r	.
=5!|:	=5!|:	=5!|:
!! Panic in Wall Street, Brokers feeling melancholy.
*>A	*>A	*>A
*^	*	*
(8.GL	2C	(16eLL c	mf
.	.	16f d	.
.	.	16g e	.
16F#Jk	.	[16aJJ) [d#	.
8cL	.	(16a]LL d#]	.
.	.	16dd# f#	.
8GJ)	.	16ee g	.
.	.	16ccJJ) e	.
=6	=6	=6	=6
*	*	*^	*
4.A-	2C	8ddL	[4f	.
.	.	16ddL	.	.
.	.	16eeJJ	.	.
.	.	(16ddLL	8fL]	.
.	.	16cc	.	.
8A-	.	16d	8cJ	.
.	.	16fJJ)	.	.
*	*	*v	*v	*
=7	=7	=7	=7
(8.GL	2C	(16eLL c	.
.	.	16f d	.
.	.	16g e	.
16F#Jk	.	[16aJJ) [d#	.
8cL	.	(16a]LL d#]	.
.	.	16dd# f#	.
8GJ)	.	16ee g	.
.	.	16ccJJ) e	.
*v	*v	*	*
=8	=8	=8
*	*^	*
4.A- C	8ddL	[4f	.
.	16eeL	.	.
.	16ddJJ	.	.
.	(16ccLL	8fL]	.
.	16dd	.	.
8G C	16ee	8eJ	.
.	16gJJ)	.	.
=9	=9	=9	=9
8BL BB	(16g#LL	8.eL	.
.	16e	.	.
8eJ d G#	16b	.	.
.	[16eeJJ)	[16g#Jk	.
8EL EE	(16eeLL]	8g#L]	.
.	16ffJ	.	.
8DJ DD	8eeJ)	8g#J	.
=10	=10	=10	=10
8CL CC	(16aLL	8.eL	.
.	16e	.	.
8eJ c A	16cc	.	.
.	[16eeJJ)	[16ccJk [a	.
8AL AA	(16eeLL]	8cc]L a]	.
.	16ffJ	.	.
8GJ GG	8eeJ)	8ccJ a	.
=11	=11	=11	=11
8F#L FF#	(16eeLL	8.ccL	<
.	16dd	.	.
8dJ c F#	16ff#	.	.
.	[16bbJJ	[16ff#Jk) [dd	.
8DL DD	4r	(16bb]LL ff#] dd]	.
.	.	16ccc ff# ee	.
8dJ c F#	.	16bb ff# dd	.
.	.	16aaJJ) ff# cc	.
*	*v	*v	*
=12	=12	=12
8GL GG	(16aaLL ffn b	.
.	16gg	.
8dJ B G	16ff	.
.	16ddJJ	>
8BBL	16eeLL g f	.
.	16dd	.
8dJ B G	16g	.
.	16fJJ)	.
=13	=13	=13
*^	*	*
(8.GL	2C	(16eLL c	mf
.	.	16f d	.
.	.	16g e	.
16F#Jk	.	[16aJJ) [d#	.
8cL	.	(16a]LL d#]	.
.	.	16dd# f#	.
8GJ)	.	16ee g	.
.	.	16ccJJ) e	.
=14	=14	=14	=14
*	*	*^	*
4.A-	2C	8ddL	[4f	.
.	.	16ddL	.	.
.	.	16eeJJ	.	.
.	.	(16ddLL	8fL]	.
.	.	16cc	.	.
8A-	.	16d	8cJ	.
.	.	16fJJ)	.	.
*	*	*v	*v	*
=15	=15	=15	=15
(8.GL	2C	(16eLL c	.
.	.	16f d	.
.	.	16g e	.
16F#Jk	.	[16aJJ) [d#	.
8cL	.	(16a]LL d#]	.
.	.	16dd# f#	.
8GJ)	.	16ee g	.
.	.	16ccJJ) e	.
=16	=16	=16	=16
*	*	*^	*
4.A-	2C	8ddL	[4f	.
.	.	16ccL	.	.
.	.	16ddJJ	.	.
.	.	8ccL	8fL]	.
8A-	.	16ccL	8fJ	.
.	.	16ddJJ	.	.
=17	=17	=17	=17	=17
8GL	4C	(16eeLL	8.eL	.
.	.	16cc	.	.
8B-J	.	16g	.	.
.	.	[16aJJ	[16c#Jk	.
4r	8AL AA	16a]LL) c#]	4r	.
.	.	16aa ee cc# a	.	.
.	8GJ GG	16bb- ee cc# b-	.	.
.	.	16aaJJ ee cc# a	.	.
*v	*v	*	*	*
*	*v	*v	*
=18	=18	=18
8F#L FF#	8eeeL cccn ff# ee	.
8dJ c F#	16dddL ccc ff# dd	.
.	[16aaJJ [ff# [cc [a	.
8dL D	(16aa]LL ff#] cc] a]	.
.	16gg# g#	.
8cJ C	16aa ff# a	.
.	16cccJJ) ff# cc	.
=19	=19	=19
8BL BB	8eeeL gg ee	.
8fnJ B G	16dddL ffn dd	.
.	[16aaaJJ [fff [aa	.
8GL GG	(16aaa]LL fff] aa]	.
.	16ggg eee gg	.
8fJ B G	16eee gg ee	.
.	16dddJJ) ff dd	.
=20	=20	=20
*>A1	*>A1	*>A1
8cL C	[4ccc [ee [cc	.
8GJ	.	.
8CL	16ccc]LL ee] cc]	.
.	(16g	.
8BJ G	16d	.
.	16d#JJ)	.
=21:|!	=21:|!	=21:|!
*>A2	*>A2	*>A2
*	*^	*
8cL C	4.r	[4ccc [ee [cc	.
8GJ	.	.	.
4C	.	8ccc]L ee] cc]	.
.	8ee	16cccL cc	.
.	.	16bb-JJ b-	.
*	*v	*v	*
=22!|:	=22!|:	=22!|:
!! Good times coming.
*>B	*>B	*>B
8FL FF	8aaL ff cc a	f
8fJ c A	8aaJ ff cc a	.
8FL FF	8cccL aa ff cc	.
8D#J DD#	8cccJ aa ff# cc	.
=23	=23	=23
*^	*^	*
8EL	4E EE	4r	4ccc gg cc	.
8eJ c G	.	.	.	.
8E-L	4E- EE-	(8bbL	4ff# cc	.
8f#J e- c	.	8aaJ)	.	.
=24	=24	=24	=24	=24
8DL	4D DD	8.aaL	4ffn cc	.
8fnJ d c	.	.	.	.
.	.	16aaJk	.	.
8GGL	4GG GGG	(16aaLL	4ff b	.
.	.	16gg	.	.
8fJ d B	.	16bb	.	.
.	.	16aaJJ)	.	.
=25	=25	=25	=25	=25
8CL	4C CC	8.aaL	4ee cc	.
8eJ c G	.	.	.	.
.	.	16aaJk	.	.
8EL EE	4r	(16aaLL	8eeL cc	.
.	.	16gg	.	.
8CJ CC	.	16ccc) cc	8eeJ	.
.	.	16bb-JJ b	.	.
*v	*v	*	*	*
*	*v	*v	*
=26	=26	=26
8FL FF	8aaL ff cc a	.
8fJ c A	8aaJ ff cc a	.
8FL FF	8cccL aa ff cc	.
8D#J DD#	8cccJ aa ff# cc	.
=27	=27	=27
*^	*^	*
8EL	4E EE	4r	4ccc gg cc	.
8eJ c G	.	.	.	.
8E-L	4E- EE-	(8bbL	4ff# cc	.
8f#J e- c	.	8aaJ)	.	.
=28	=28	=28	=28	=28
4r	8DL DD	4r	8aaL ffn cc	.
.	8EJ EE	.	8aaJ ee cc	.
8EL	4E EE	(8.gg#L	4ee dd	.
8eJ d G#	.	.	.	.
.	.	16bbJk)	.	.
*v	*v	*	*	*
=29	=29	=29	=29
16ALL AA	4r	4aa ee cc	.
16E	.	.	.
16C	.	.	.
16AAJJ	.	.	.
4C CC	(16aaLL	8eeL cc	.
.	16gg	.	.
.	16ccc) cc	8eeJ	.
.	16b-JJ	.	.
*	*v	*v	*
=30	=30	=30
8FL FF	8aaL ff cc a	.
8fJ c A	8aaJ ff cc a	.
8FL FF	8cccL aa ff cc	.
8D#J DD#	8cccJ aa ff# cc	.
=31	=31	=31
*^	*^	*
8EL	4E EE	4r	4ccc gg cc	.
8eJ c G	.	.	.	.
8E-L	4E- EE-	(8bbL	4ff# cc	.
8f#J e- c	.	8aaJ)	.	.
=32	=32	=32	=32	=32
8DL	4D DD	8.aaL	4ffn cc	.
8fnJ d c	.	.	.	.
.	.	16aaJk	.	.
8GGL	4GG GGG	(16aaLL	4ff b	.
.	.	16gg	.	.
8fJ d B	.	16bb	.	.
.	.	16aaJJ)	.	.
=33	=33	=33	=33	=33
8CL	4C CC	8.aaL	4ee cc	.
8eJ c G	.	.	.	.
.	.	16aaJk	.	.
8EL	4E EE	(16aaLL	8ee cc	.
.	.	16gg	.	.
8GJ E	.	16cc) c	8r	.
.	.	16ddJJ d	.	.
*v	*v	*	*	*
*	*v	*v	*
=34	=34	=34
(16FF#LL	4dd# cc a d#	.
16AAJ	.	.
(8F#J)	.	.
16D#LL	4ff# cc a f#	.
16F#J	.	.
8d#J)	.	.
=35	=35	=35
(16f#LL	2aa dd# cc a	.
16d#	.	.
16c	.	.
16AJJ	.	.
16d#LL	.	.
16c	.	.
16A	.	.
16F#JJ)	.	.
=36	=36	=36
*^	*^	*
8GL	4G	(8aaL a	4ee cc	.
8eJ c	.	8ggJ) g	.	.
8GGL	4GG	(16eeLK	16bLK g	.
.	.	8dd	8.bJ f	.
8GJ	.	.	.	.
.	.	16eeJk)	.	.
*v	*v	*	*	*
*	*v	*v	*
=37	=37	=37
*>B1	*>B1	*>B1
8G C	8ccL e	.
8r	16eeL e	.
.	16ffJJ f	.
8r	16ff#LL f#	.
.	16gg g	.
8C CC	16ccc ee cc	.
.	16bb-JJ ee b-	.
=38:|!	=38:|!	=38:|!
*>B2	*>B2	*>B2
*^	*^	*
[4G	8CL	[4cc [e	4.r	.
.	8GGJ	.	.	.
8G]	4CC	8cc] e]	.	.
8r	.	(16gLL	8e B-	.
.	.	16g#JJ)	.	.
*v	*v	*	*	*
*	*v	*v	*
=39	=39	=39
!! Good times have come.
*>C	*>C	*>C
*k[b-]	*k[b-]	*k[b-]
*^	*	*
8AL C	4FF	16aLL f	mp
.	.	16b- g	.
8AJ F C	.	16cc a	.
.	.	[16aJJ [f	.
8CCL	4CC	(16a]LL f]	.
.	.	16aJ f c	.
8FJ C	.	8aJ) f d	.
=40	=40	=40	=40
8FFL	4FF	16aLL f	.
.	.	16a f c	.
8FJ C	.	16a f c#	.
.	.	[16aJJ [f [d	.
8CCL	4CC	16a]LK f] d]	.
.	.	8a f e-	.
8FJ C	.	.	.
.	.	[16aJk f [d	.
*v	*v	*	*
=41	=41	=41
*	*^	*
(8BBB-L	(16a]LL f	8.dL]	.
.	16g	.	.
8BB-J)	16f	.	.
.	[16gJJ) [f	16d-Jk	.
(8BBB-L	(16g]LL f] d-	4r	.
.	16d- F	.	.
8BB-J)	16d- G	.	.
.	[16cJJ) [A	.	.
=42	=42	=42	=42
*^	*	*	*
8FFL	4FF	16r	4c_ A_	.
.	.	16aaLL ff	.	.
8AJ F C	.	16aa ee	.	.
.	.	[16aaJJ [dd	.	.
8CCL	4CC	16aa] dd]	16c]LL A]	.
.	.	16r	16dd b-	.
8B-J E C	.	8r	16cc a	.
.	.	.	16b-JJ g	.
*	*	*v	*v	*
=43	=43	=43	=43
8AL C	4FF	16aLL f	.
.	.	16b- g	.
8AJ F C	.	16cc a	.
.	.	[16aJJ [f	.
8CCL	4CC	(16a]LL f]	.
.	.	16aJ f c	.
8FJ C	.	8aJ) f d	.
=44	=44	=44	=44
8FFL	(4FF	16aLL f	.
.	.	16a f c	.
8FJ)	.	16a f c#	.
.	.	[16aJJ [f [d	.
8FF#L	(4FF#	16a]LK f] d]	.
.	.	8a d# cn	.
8F#J)	.	.	.
.	.	[16aJk [e [c	.
=45	=45	=45	=45
*	*	*^	*
8GGL	(4GG	(16aLL]	4e] c]	<
.	.	16g	.	.
8GJ)	.	16f#	.	.
.	.	16gJJ)	.	.
(8GGL	4GG	16bnLK g fn	4r	.
.	.	8ee b g	.	.
8GJ)	.	.	.	.
.	.	16ddJk b f	.	.
*v	*v	*	*	*
=46	=46	=46	=46
(4C	(8ddL	4b- e	.
.	8ccJ	.	>
4C CC)	(8gL)	4e B-	.
.	8g#J)	.	.
*	*v	*v	*
=47	=47	=47
*^	*	*
8AL C	4FF	16aLL f	mp
.	.	16b- g	.
8AJ F C	.	16cc a	.
.	.	[16aJJ [f	.
8CCL	4CC	(16a]LL f]	.
.	.	16aJ f c	.
8FJ C	.	8aJ) f d	.
=48	=48	=48	=48
8FFL	4FF	16aLL f	.
.	.	16a f c	.
8FJ C	.	16a f c#	.
.	.	[16aJJ [f [d	.
8CL	4C	16a]LK f] d]	.
.	.	8a f e-	.
8AJ F	.	.	.
.	.	[16aJk [f [d	.
*v	*v	*	*
=49	=49	=49
*	*^	*
8BB-L	16a]LL f]	8.dL]	.
.	16g	.	.
8DJ	16f	.	.
.	[16gJJ [f	[16dJk	.
8B-L BB-	8g]L f] d]	4r	<
8B-J BB-	8g#J e d	.	.
=50	=50	=50	=50
*^	*	*	*
8AL	4A AA	16r	[4a [e [c#	.
.	.	16cc#LL a	.	.
8AJ E	.	16ee cc#	.	.
.	.	[16aaJJ [cc#	.	.
8GL	4G GG	16aa] cc#]	16a]LL e] c#]	.
.	.	16r	16eJ c#	.
8AJ E	.	8r	8aJ c#	.
*v	*v	*	*	*
*	*v	*v	*
=51	=51	=51
8F#L FF#	8aL d	mf
8cJ F# D	16ddL cc f#	.
.	[16ee-JJ [cc [f#	.
8DL DD	16ee-]LL cc] f#]	.
.	16dd	.
8dJ c F#	16bb- ff# dd	.
.	16aaJJ ff# cc	.
=52	=52	=52
*	*^	*
8GL GG	16aaLL ffn	8.bnL	.
.	16dd	.	.
8dJ Bn G	16ff	.	.
.	[16ggJJ ff	[16bJk	.
8DL DD	16gg]LL ff	8bL]	.
.	16aaJ	.	.
8D#J DD#	8ggJ ff	8bJ	.
=53	=53	=53	=53
8EL EE	16aaLL	8.eeL cc	.
.	16gg	.	.
8eJ c B-	16ee	.	.
.	[16cccJJ	[16eeJk [cc	.
8CL CC	16cccLL]	8ee]L cc]	.
.	16bb-	.	.
8eJ c B-	16dd	8b-J	.
.	16eeJJ	.	.
*	*v	*v	*
=54	=54	=54
*>C1	*>C1	*>C1
*	*^	*
8FL FF	4r	[4ff cc a	.
16EL EE	.	.	.
16DJJ DD	.	.	.
4C CC	(16ffLL]	16ccLL a	>
.	16f	16AJ	.
.	16g	8eJ B-	.
.	16g#JJ)	.	.
*	*v	*v	*
=55:|!	=55:|!	=55:|!
*>C2	*>C2	*>C2
8FL FF	[4ff [cc [a	.
16AAL	.	.
16CJJ	.	.
8FL FF	8ff] cc] a]	.
8F#J FF#	(16ddLL	.
.	16dd#JJ)	.
=56!|:	=56!|:	=56!|:
!! Listening to the strains of genuine negro ragtime, brokers forget their cares.
*>D	*>D	*>D
8GL GG	16eeLL	mf
.	16ddd ccc bb- gg	.
8eJ c B-	16dd	.
.	16dd#JJ	.
8CL CC	16eeLL	.
.	16dddn ccc bb- gg	.
8eJ c B-	16ddn	.
.	16dd#JJ	.
=57	=57	=57
8GL GG	16eeLK	.
.	8ddd ccc bb- gg	.
8eJ c B-	.	.
.	[16cccJk [bb- [aa	.
8cL C	(16ccc]LL bb-] aa]	.
.	16gg	.
8B-J BB-	16dd	.
.	16eeJJ)	.
=58	=58	=58
8AL AA	16ffLL	.
.	16ddd ccc aa	.
8fJ c A	16dd	.
.	16eeJJ	.
8CL CC	16ffLL	.
.	16ddd ccc aa	.
8fJ c A	16dd	.
.	16eeJJ	.
=59	=59	=59
8FL FF	16ffLK	.
.	8ccc aa gg	.
8fJ c A	.	.
.	[16cccJk [aa [gg	.
8cL C	(16ccc]LL aa] gg]	.
.	16ff	.
8fJ c A	16ee	.
.	16ffJJ)	.
=60	=60	=60
8AL AA	16ff#LL	.
.	16eee- ccc aa	.
8dJ c F#	16een	.
.	16ee#JJ	.
8dL D	16ff#LL	.
.	16eee- ccc aa	.
8cJ C	16een	.
.	16dddJJ aa ff#	.
=61	=61	=61
8B-L BB-	16dddLK bb- gg	.
.	8ddd bb- aa	.
8dJ B- G	.	.
.	[16dddJk [bb- [aa	.
8GL GG	(16ddd]LL bb-] aa]	.
.	16gg	.
8dJ B- G	16aa	.
.	16bb-JJ)	.
=62	=62	=62
8G#L GG#	16bbnLL	<
.	16eee ddd	.
8eJ d Bn	16gg#	.
.	16aaJJ	.
8EL EE	16bbLL	.
.	16eee ddd	.
8eJ d G#	16gg#	.
.	16eeeJJ ddd bb	.
=63	=63	=63
8AL AA	4eee ccc aa	f
8eJ c A	.	.
8AL AA	8cccL ff# dd# cc	.
8F#J FF#	(16ddnL	.
.	16dd#JJ	.
=64	=64	=64
8GL GG	16eeLL)	mf
.	16ddd ccc bb- gg	.
8eJ c B-	16dd	.
.	16dd#JJ	.
8CL CC	16eeLL	.
.	16ddd cccn bb- gg	.
8eJ c B-	(16ddn	.
.	16dd#JJ)	.
=65	=65	=65
8GL GG	16eeLK	.
.	8ddd ccc bb- gg	.
8eJ c B-	.	.
.	[16cccJk [bb- [aa	.
8cL C	16ccc]LL bb-] aa]	.
.	(16gg	.
8B-J BB-	16dd	.
.	16eeJJ	.
=66	=66	=66
8AL AA	16ffLL)	.
.	16ddd ccc aa	.
8fJ c A	16dd	.
.	16eeJJ	.
8CL CC	16ffLL	.
.	16ddd ccc aa	.
8fJ c A	16dd	.
.	16eeJJ	.
=67	=67	=67
8FL FF	16ffLK	.
.	8ccc aa gg	.
8fJ c A	.	.
.	[16cccJk [aa [gg	.
8cL C	(16ccc]LL aa] gg]	.
.	16ff	.
8fJ c A	16ee	.
.	16ffJJ)	.
=68	=68	=68
8AL AA	16ff#LL	.
.	16eee- ccc aa	.
8dJ c F#	16een	.
.	16ee#JJ	.
8dL D	16ff#LL	.
.	16eee- ccc aa	.
8cJ C	16een	.
.	16dddJJ aa ff#	.
=69	=69	=69
8B-L BB-	16dddLK bb- gg	.
.	8ddd bb- aa	.
8dJ B- G	.	.
.	[16dddJk [bb- [aa	.
8dL D	16ddd]LL bb-] aa]	.
.	16dddJ bb- gg	.
8d-J D-	8fffJ bbn gg#	.
=70	=70	=70
*	*^	*
8cL C	16fffLL ccc	4aa	.
.	16ddd	.	.
8fJ c A	16ccc	.	.
.	16aaJJ	.	.
8CL CC	16aaLK	16eeLK cc	.
.	8gg	8.eeJ b-	.
8eJ c B-	.	.	.
.	16eeeJk	.	.
*	*v	*v	*
=71	=71	=71
*>D1	*>D1	*>D1
8FL FF	[4ff [cc [a	.
16AAL	.	.
16CJJ	.	.
8FL FF	8ff]L cc] a]	.
8F#J FF#	16ddL	.
.	16dd#JJ	.
=72:|!	=72:|!	=72:|!
*>D2	*>D2	*>D2
8FL FF	4ff cc a	.
8CJ	.	.
8FF	8ccc aa ff	.
8r	8r	.
==	==	==
*-	*-	*-
!!!ENC: Craig Stuart Sapp
!!!END: 2005/01/23/
